X:1
T:Venia in morte Josquino, Cantores suavissimi.
T:Benedictus Ducis
T:Venia in morte Josquini, cantores suavissimi
C:Benedictus Ducis
%%score [ 1 2 3 4 ]
L:1/8
Q:1/4=130
M:4/2
K:C
V:1 treble nm="Soprano" snm="S"
V:2 treble-8 nm="Alto" snm="A"
V:3 treble-8 nm="Tenor" snm="T"
V:4 bass nm="Bass" snm="B"
V:1
"^Prima pars" z16 | z16 | z16 | z16 | z8 B8- | B8 A8 | c12 B4 | G4 A4 B8- | B4 E4 E8- | %9
w: ||||Mu-|* sae,|Jo- *|vis ter max-|* i- mi,|
 E4 D2 C2 G8 | z4 d8 c4 | A4 B4 c2 B2 A2 G2 | A8 A4 A4- | A4 D4 D8 | z4 G8 F2 E2 | %15
w: _ _ _ _|Mu- sae,|Jo- * * * * *|vis ter max-|* i- mi,|ter _ _|
 F6 G2 A2 _B2 A4- | A4 G8 F4 | E6 F2 E2 D2 C2 B,2 | C16- | C16 | z16 | z4 E4 E4 C4 | F8 E4 c4- | %23
w: max- * * * *||* * * * i- *|mi,|_||Pro- les ca-|no- * *|
 c2 B2 A8 G4 | F4 E6 F2 G2 A2 | G6 F2 E2 D2 E4 | A,4 A4 A4 G4 | c6 B2 A2 G2 A4 | G8 z4 G4- | %29
w: |ra, plan- * * *|* * * * gi-|te, Pro- les ca-|no- * * * *|ra, plan-|
 G4 G4 G8 | z4 G8 E4 | E6 F2 E2 D2 C4- | C4 B,2 A,2 B,4 E4- | E4 C4 C4 c4- | c4 B2 A2 B4 c4- | %35
w: * gi- te,|plan- gi-|te, _ _ _ _|_ _ _ _ plan-|* gi- te, plan-||
 c2 B2 A8 G2 F2 | G4 A4 D8 | z4 G4 G4 E4 | A12 G4 | F6 E2 D8 | G12 F2 E2 | F4 G4 A4 c4 | B4 A8 G4 | %43
w: |* gi- te.|Ra- mos cy-|pres- sus|com- * *||* pri- mat, _|com- * pri-|
 A8 z4 E4 | G12 E4 | F12 E2 D2 | E8 z4 G4- | G4 G4 A4 G4 | G8 z8 | z4 B4 d4 A4 | c4 B6 A2 A4- | %51
w: mat; Ju-|do- cus|il- * *|le, il-|* le oc- ci-|dit,|Tem- plis et|de- cus _ ves-|
 A4 G4 A8 | z4 E4 G4 D2 E2 | F2 G2 A6 G^F G4 | A8 z4 E4 | G12 E4 | F12 E2 D2 | E8 z4 G4- | %58
w: * * tris,|et de- cus _|ves- * * * * *|tris, Ju-|do- cus|il- * *|le, il-|
 G4 G4 A4 G4 | G8 z4 G4- | G4 G4 A4 G4 | G8 z8 | z4 B4 d4 A4 | c4 B6 A2 A4- | A4 ^G4 A8 | %65
w: * le oc- ci-|dit, il-|* le oc- ci-|dit,|Tem- plis et|de- cus _ ves-|* * tris,|
 z4 E4 G4 D2 E2 | F2 G2 A6 G^F G4 | A16- | A16- | A16- | A16 ||"^Secunda pars" G16 | G8 G8 | G16- | %74
w: et de- cus _|_ _ ves- * * *|tris.|_|||Se-|re- na|mors,|
 G16 | z8 B8 | B8 c8 | B16 | z8 G8 | F8 E8 | D8 z8 | D16 | D8 E8 | F12 F4 | F8 G8 | C4 c6 B2 A4- | %86
w: _|Se-|re- na|mors,|et|im- pro-|ba,|Quae|tem- pla|dul- ci-|bus so-|nis, Pri- * *|
 A2 G2 F2 E2 D4 G4 | G2 F2 E2 D2 C4 D4 | G,4 G6 F2 E4- | E4 D2 C2 B,8 | B6 A2 B4 c4- | %91
w: * * * * * ras,|pri- * * * * *|ras, Pri- * *|* * * ras,|pri- * * *|
 c4 B2 A2 G8 | z16 | z16 | z4 c4 B4 c4 | A12 G4 | G8 z4 G4 | C4 F2 G2 A2 B2 c4- | c4 B2 A2 G4 A4 | %99
w: * * * ras|||et au- las|prin- ci-|pis, et|au- * * * * *||
 E4 G4 G4 F4- | F2 E2 E8 ^D4 | E16 | z8 G8 | c12 d4 | c4 B4 A4 c4 | d6 c2 B2 A2 G4- | G4 ^F4 G8 | %107
w: * las prin- *|* * * ci-|pis,|Nos|quo- que|di- * co _|vul- * * * *|* ne- re,|
 z4 G4 c8- | c4 d4 c4 B4 | A6 G2 F6 E2 | D4 G8 F4 | G4 A4 G8 | z4 G4 c8 | c4 B4 A4 G4 | F8 E8 | %115
w: Nos quo-|* * * que|di- * co _|vul- * *|* ne- re,|Nos quo-|que _ di- co|vul- ne-|
 D16 | z16 | z16 | c12 B4 | A4 G4 F8 | E8 D6 E2 | F2 G2 A8 G4- | G2 FE F4 G8 | z4 E4 A4 G4 | %124
w: re,|||Nos _|quo- que di-|co vul- *||* * * ne- re.|Jos- qui- ni|
 c8 B8- | B4 E4 F4 G4 | A6 B2 c2 B2 c4- | c2 B2 A4 A4 G4 | A8 E8 | z4 G2 F2 E2 D2 E4- | %130
w: mor- *|||* * te fe- *|ris, _|mor- * * * te|
 E4 D2 C2 B,2 A,2 B,4 | A,8 z8 | z4 E4 A4 G4 | c8 B8- | B4 E4 F4 G4 | A6 B2 c2 B2 c4- | %136
w: _ fe- * * * *|ris,|Jos- qui- ni|mor- *|||
 c2 B2 A8 G4 | A8 E8- | E16- | E16 |] %140
w: * * * te|fe- ris.|_||
V:2
 z16 | z16 | z16 | z16 | e16 | d8 f8- | f4 e4 c4 d4 | e12 e4 | e6 d2 c2 B2 c4 | c4 B2 A2 B4 g4- | %10
w: ||||Mu-|sae, Jo-|* * vis ter|max- i-|mi, _ _ _ _|ter _ _ max- *|
 g4 f4 d4 a4- | a4 g2 f2 e2 d2 c2 B2 | c4 d6 e2 f4 | F4 G8 G4 | G8 z4 G4 | _B4 A6 G2 A2 B2 | %16
w: * i- mi, Mu-||sae, Jo- * vis|ter max- i-|mi, ter|max- * * * *|
 c2 d2 e8 d4 | c4 B2 A2 B4 A4 | A16 | z4 e4 e6 c2 | e4 f8 e2 d2 | c6 B2 A4 e4- | e2 c2 d4 e8- | %23
w: |* * * * i-|mi,|Pro- les ca-|no- * * *||* * * ra,|
 e4 f6 e2 d4- | d4 c6 B2 e4 | e4 e4 g8 | c8 z4 e4 | e4 c4 f8 | e8 z4 e4- | e4 e4 e8 | z4 e8 c4 | %31
w: _ ca- * no-||ra, ca- no-|ra, Pro-|les ca- no-|ra, plan-|* gi- te,|plan- gi-|
 c16 | z8 z4 B4- | B4 A4 A8 | z4 e4 e4 c4 | f12 e4 | d4 c4 (3B6 c2 d4 | (3G6 A2 B4 c8 | F6 G2 A8 | %39
w: te,|plan-|* gi- te.|Ra- mos cy-|pres- sus|com- * * * *||* * pri-|
 D4 d4 d4 B4 | e12 d4 | c4 B4 A8 | z8 z4 E4 | c16 | c16 | d16 | c8 z4 c4- | c4 c4 f4 e4 | e8 z8 | %49
w: mat, Ra- mos cy-|pres- sus|com- pri- mat;|Ju-|do-|cus|il-|le, il-|* le oc- ci-|dit,|
 e4 g4 d4 f4 | e6 d2 f4 d4 | e8 c8 | A4 c4 G4 B4 | A8 z4 E4 | c16 | c16 | d16 | c8 z4 c4- | %58
w: Tem- plis et de-|cus _ ves- tris,|de- cus|et de- cus ves-|tris, Ju-|do-|cus|il-|le, il-|
 c4 c4 f4 e4 | e8 z4 e4- | e4 e4 f4 e4 | e8 z8 | e4 g4 d4 f4 | e6 d2 f4 d4 | e8 c8 | A4 c4 G4 B4 | %66
w: * le oc- ci-|dit, il-|* le oc- ci-|dit,|Tem- plis et de-|cus _ ves- *|tris, et|de- cus ves- *|
 A8 e8 | z4 e4 f8 | c4 e4 d4 f4- | f2 e2 e6 d2 c2 B2 | c16 || B16 | G8 c8 | B16 | z4 B4 B8 | %75
w: tris, _|et de-|* cus ves- *||tris.|Se-|re- na|mors,|Se- re-|
 G8 g8- | g8 e4 g4- | g4 f2 e2 d6 e2 | f4 d4 e8 | A16 | z8 c8 | B8 A8 | G4 d8 c4 | d16- | d8 G8 | %85
w: na mors,|_ et im-|* * * pro- *||ba,|et|im- pro-||ba,|_ Quae|
 A12 A4 | A8 B8 | c8 A8 | e6 d2 B4 c4- | c4 B2 A2 G8 | e16- | e16 | c16- | c16 | z4 c4 d4 e4 | %95
w: tem- pla|dul- ci-|bus _|so- * * *|* * * nis,|Pri-||ras|_|et au- las|
 f12 e4 | c8 z8 | z4 A8 G4 | E8 z4 e4- | e4 e4 B4 d4 | A8 B8 | B16- | B16 | z4 c4 f8- | %104
w: prin- ci-|pis,|prin- ci-|pis, et|_ au- las prin-|ci- *|pis,|_|Nos quo-|
 f4 g4 f4 e4 | d4 f4 g8 | z4 c4 d2 c2 B2 A2 | c4 B4 A4 c4 | f12 g4 | f4 e4 d6 c2 | B2 A2 B8 c4 | %111
w: * que di- co|vul- ne- re,|Nos quo- * * *|* que di- co|vul- ne-|re, _ di- *|co _ vul- ne-|
 d8 z4 G4 | c12 B4 | A4 G4 F4 E4 | D4 d8 c4 | B4 A4 z4 G4 | d6 d2 c4 B4- | B4 A8 ^G4 | %118
w: re, Nos|quo- que|di- * co _|vul- * ne-|re, _ Nos|quo- que di- co|_ vul- ne-|
 A6 B2 c4 d4 | c4 e4- e2 d2 d4- | d4 c4 d4 _B4- | B4 A4 z4 z4 | c8 e4 d4 | g8 f4 e4- | %124
w: re, _ _ di-|co vul- * * *|* * * ne-|* re.|Jos- qui- ni|mor- * *|
 e4 c4 e4 d4 | g8 f4 e4- | e4 d4 e8- | e16- | e8 z4 c4 | A4 B4 c6 BA | G4 A8 G4 | A4 e4 e4 d4 | %132
w: * * * te|fe- * *|* * ris,|_|||te fe- *|ris, Jos- qui- ni|
 g8 f4 e4- | e4 c4 e4 d4 | g8 f4 e4- | e4 d4 e8- | e16- | e8 z4 c4 | A4 B4 c8 | B16 |] %140
w: mor- * *|* * * te|fe- * *|* * ris,|_|* mor-|te _ fe-|ris.|
V:3
 z8 B8- | B8 A8 | c12 B4 | G4 A4 B8- | B4 E4 E8 | z16 | z16 | z16 | z16 | e16 | d8 f8- | %11
w: Mu-|* sae,|Jo- *|vis ter max-|* i- mi,|||||Mu-|sae, Jo-|
 f4 e4 c6 d2 | e4 f6 e2 d4- | d2 c2 B2 A2 B8- | B4 B4 B8 | d12 c4 | A4 B4 c4 A4- | %17
w: * * vis _|_ ter _ _|_ _ _ _ max-|* i- mi,|Mu- sae,|Jo- * * vis|
 A2 G2 G6 F2 E2 D2 | E12 E4 | E8 z4 c4 | c4 A4 d8 | e6 d2 c2 B2 A4- | A4 B4 c4 A4 | A4 F4 _B8 | %24
w: _ _ ter _ _ _|max- i-|mi, Pro-|les ca- no-||* * ra, Pro-|les ca- no-|
 A6 B2 c2 d2 c4- | c4 B2 A2 G4 c4 | c4 A4 B8 | A8 z8 | c12 c4 | c8 z8 | B12 A4 | A16 | z8 G8- | %33
w: |* * * ra, Pro-|les ca- no-|ra,|plan- gi-|te,|plan- gi-|te,|plan-|
 G4 E4 E8- | E8 z8 | z16 | z16 | z4 e4 e4 c4 | f12 e4 | d6 c2 (3B6 c2 d4 | (3G6 A2 B4 c6 B2 | %41
w: * gi- te.|_|||Ra- mos cy-|pres- sus|com- * * * *|* * pri- mat, _|
 A4 d4 d4 c4 | d6 A2 c4 B4 | A8 z8 | z4 E4 G8- | G4 F4 _B8 | G16- | G8 z4 G4- | G4 G4 A4 G4 | %49
w: _ Ra- mos cy-|pres- sus com- pri-|mat;|Ju- do-|* cus il-|le,|_ il-|* le oc- ci-|
 G8 z8 | z4 B4 d4 A4 | B8 A4 c4- | c4 B2 A2 B6 c2 | d4 A4 B8 | A8 z8 | z4 E4 G8- | G4 F4 _B8 | %57
w: dit,|Tem- plis et|de- cus ves-||* tris, de-|cus|Ju- do-|* cus il-|
 G16- | G8 z4 G4- | G4 G4 A4 G4 | G8 z4 G4- | G4 G4 A4 G4 | G8 z8 | z4 B4 d4 A4 | B8 A4 c4- | %65
w: le,|_ il-|* le oc- ci-|dit, il-|* le oc- ci-|dit,|Tem- plis et|de- cus ves-|
 c4 B2 A2 B6 c2 | c4 A4 B8 | A16 | A4 c4 F4 A4- | A2 G2 F2 E2 F8 | E16 || e16 | e8 e8 | d16- | %74
w: * * * tris, et|de- cus ves-|tris,|et de- cus ves-||tris.|Se-|re- na|mors,|
 d16 | z8 e8 | e8 e8 | d8 B4 d4- | d2 c2 A2 B2 c2 d2 e2 d2 | d4 z4 c8 | B8 A8 | G8 z4 F4 | _B8 A8 | %83
w: _|Se-|re- na|mors, _ _|_ _ _ _ _ _ _ _|* et|im- pro-|ba, Quae|tem- pla,|
 z4 F4 _B8 | A8 z4 c4- | c4 c4 c8 | d6 c2 B2 A2 G4- | G4 c8 B2 A2 | B4 c4 G8- | G8 z4 e4- | %90
w: Quae tem-|pla dul-|* ci- bus|so- * * * *||* * nis,|_ Pri-|
 e4 g6 f2 e4- | e4 d2 c2 B4 G4 | A4 G4 A8- | A4 G4 G8- | G8 z8 | z16 | z4 c4 B4 c4 | %97
w: * ras _ et|_ _ _ au- *|* las prin-|* ci- pis,|_||et au- las|
 A6 B2 c2 d2 e4- | e4 d2 c2 B4 c4- | c4 B2 A2 G4 A4- | A2 G2 E4 ^F8 | E16- | E16 | z16 | z8 z4 A4 | %105
w: prin- * * * *|||* * ci- pis,|_|||Nos|
 d12 e4 | d4 c4 B4 d4 | e8 z8 | z16 | z4 A4 d8- | d4 e4 d4 c4 | B4 d4 e8- | e8 z8 | z8 z8 | z8 A8 | %115
w: quo- que|di- co vul- ne-|re,||Nos quo-|* que di- co|vul- ne- re,|_||Nos|
 d12 c4 | B4 A4 G4 F4 | E8 z8 | z16 | z16 | z4 A4 _B4 G4 | d8 c4 e4- | e2 d2 c6 BA B4 | %123
w: quo- que|di- co vul- ne-|re,|||Jos- qui- ni|mor- * *|* * * * * te|
 c6 C2 F4 G4 | A8 G8 | E4 c4 A4 c4- | c2 B2 A8 G4 | F8 E8- | E16- | E16- | E8 z4 E4 | E4 C4 G8 | %132
w: fe- * * *|ris, _|Jos- qui- ni mor-|* * * te|_ _|||* Jos-|qui- * ni|
 C6 C2 F4 G4 | A8 G8 | E4 c4 A4 c4- | c2 B2 A8 G4 | A8 E8- | E16- | E16- | E16 |] %140
w: mor- te fe- *|ris, _|Jos- qui- ni mor-|* * * te|fe- ris.|_|||
V:4
 E,16 | D,8 F,8- | F,4 E,4 C,4 D,4 | E,12 E,4 | E,8 z8 | z16 | z16 | z16 | z8 A,8- | A,8 G,8 | %10
w: Mu-|sae, Jo-|* * vis ter|max- i-|mi,||||Mu-|* sae,|
 _B,8 B,4 A,4 | F,4 G,4 A,8- | A,4 D,4 D,8 | z16 | E,16 | D,8 F,8- | F,4 E,4 C,4 D,4 | E,12 A,,4 | %18
w: Jo- vis ter|max- * *|* i- mi,||Mu-|sae, Jo-|* * vis ter|max- i-|
 A,,16- | A,,8 z4 A,4 | A,4 F,4 _B,8 | A,16 | z16 | z16 | z16 | z4 E,4 E,4 C,4 | F,8 E,8 | z16 | %28
w: mi,|_ Pro-|les ca- no-|ra,||||Pro- les ca-|no- ra,||
 C,12 C,4 | C,8 z8 | E,12 A,,4 | A,,16 | z8 E,8- | E,4 E,4 A,,8- | A,,8 z4 A,4 | A,4 F,4 _B,8- | %36
w: plan- gi-|te,|plan- gi-|te,|plan-|* gi- te.|_ Ra-|mos cy- pres-|
 B,4 A,4 G,6 F,2 | E,8 z8 | z16 | z8 z4 G,4 | G,4 E,4 A,8- | A,4 G,4 F,6 E,2 | D,4 F,4 E,8 | %43
w: * sus com- pri-|mat,||Ra-|mos cy- pres-|* sus com- *|* pri- mat;|
 z4 A,,4 C,8- | C,8 C,8 | _B,,16 | C,16- | C,8 z4 C,4- | C,4 C,4 F,4 E,4 | E,8 z8 | %50
w: Ju- do-|* cus|il-|le,|_ il-|* le oc- ci-|dit,|
 E,4 G,4 D,4 F,4 | E,8 A,,8- | A,,8 E,4 G,4 | D,4 F,4 E,8 | z4 A,,4 C,8- | C,8 C,8 | _B,,16 | %57
w: Tem- plis et de-|cus et|_ de- cus|ves- * tris,|Ju- do-|* cus|il-|
 C,16- | C,8 z4 C,4- | C,4 C,4 F,4 E,4 | E,8 z4 E,4- | E,4 E,4 F,4 E,4 | E,8 z8 | E,4 G,4 D,4 F,4 | %64
w: le,|_ il-|* le oc- ci-|dit, il-|* le oc- ci-|dit,|Tem- plis et de-|
 E,8 A,,8- | A,,8 E,4 G,4 | D,4 F,4 E,8 | A,,8 z4 D,4 | F,4 C,4 D,8 | A,,16- | A,,16 || E,16 | %72
w: cus ves-|* tris, et|de- cus ves-|tris, et|de- cus ves-|tris.|_|Se-|
 E,8 C,8 | G,16- | G,16 | z8 E,8 | E,8 C,8 | G,12 G,4 | F,8 E,8 | D,6 C,2 A,,4 C,4 | %80
w: re- na|mors,|_|Se-|re- na|mors, et|im- pro-|ba, _ _ _|
 G,,4 G,8 ^F,4 | G,4 G,,4 D,8 | z16 | D,16 | D,8 E,8 | F,8 F,4 F,4 | F,8 G,8 | C,8 F,8 | E,16- | %89
w: et im- *|pro- * ba,||Quae|tem- pla|dul- ci- bus|so- nis,|Pri- *|ras,|
 E,16- | E,16 | z8 E,8 | F,4 E,4 F,8- | F,4 E,4 C,8- | C,8 z8 | z16 | z4 C,4 D,4 E,4 | F,12 E,4 | %98
w: _||et|au- las prin-|* ci- pis,|_||et au- las|prin- ci-|
 C,6 D,2 E,4 A,,4 | C,6 D,2 E,4 D,4 | D,4 C,4 B,,8 | E,16- | E,16 | z16 | z16 | z4 D,4 G,8- | %106
w: pis, _ _ et|au- * * las|prin- * ci-|pis,|_|||Nos quo-|
 G,4 A,4 G,6 F,2 | E,4 G,4 A,8 | z16 | z8 z4 D,4 | G,12 A,4 | G,4 F,4 E,6 D,2 | C,16 | z16 | z16 | %115
w: * que di- co|vul- ne- re,||Nos|quo- que|di- co vul- ne-|re,|||
 D,8 G,8- | G,4 F,4 E,4 D,4 | C,8 B,,8 | A,,4 A,8 G,4 | A,4 E,4 F,6 G,2 | A,8 z8 | z4 D,4 F,4 E,4 | %122
w: Nos quo-|* que di- co|vul- ne-|re, di- co|vul- ne- re. _|_|Jos- qui- ni|
 A,8 G,8 | C,8 z8 | z16 | z4 C,4 D,4 C,4 | F,8 E,8 | A,,8 z4 C,4 | A,,4 C,6 B,,2 A,,4- | %129
w: mor- *|te||Jos- qui- ni|mor- *|||
 A,,4 G,,4 A,,8 | E,16 | A,,8 G,,8 | z16 | z16 | z4 C,4 D,4 C,4 | F,8 E,8 | A,,8 z4 C,4 | %137
w: |fe-|ris, _|||Jos- qui- ni|mor- *|te Jos-|
 A,,4 C,6 B,,2 A,,4- | A,,4 G,,4 A,,8 | [E,,E,]16 |] %140
w: qui- ni _ mor-|* te fe-|ris.|

